app/assets/images/icons/get-ready-dark.svg

<?xml version="1.0" encoding="UTF-8"?>
<svg width="83px" height="91px" viewBox="0 0 83 91" version="1.1" xmlns="http://www.w3.org/2000/svg" xmlns:xlink="http://www.w3.org/1999/xlink">
    <!-- Generator: Sketch 47 (45396) - http://www.bohemiancoding.com/sketch -->
    <title>Index_movingDay_icon</title>
    <desc>Created with Sketch.</desc>
    <defs>
        <polygon id="path-1" points="0.0666162162 83.2702703 77.7189189 83.2702703 77.7189189 0.777189189 0.0666162162 0.777189189"></polygon>
    </defs>
    <g id="Move.mil-Index" stroke="none" stroke-width="1" fill="none" fill-rule="evenodd">
        <g id="Index_Desktop" transform="translate(-121.000000, -1273.000000)">
            <g id="Main-Content" transform="translate(124.000000, 758.000000)">
                <g id="Moving-Day" transform="translate(0.000000, 518.000000)">
                    <g id="noun_200773">
                        <mask id="mask-2" fill="white">
                            <use xlink:href="#path-1"></use>
                        </mask>
                        <g id="Clip-2"></g>
                        <path d="M75.2763243,36.5278919 C75.2763243,36.6389189 75.1652973,36.7499459 75.0542703,36.7499459 L72.1675676,36.7499459 C72.0565405,36.7499459 71.9455135,36.6389189 71.9455135,36.5278919 L71.9455135,28.5339459 C71.9455135,28.4229189 72.0565405,28.3118919 72.1675676,28.3118919 L75.0542703,28.3118919 C75.1652973,28.3118919 75.2763243,28.4229189 75.2763243,28.5339459 L75.2763243,36.5278919 Z M66.7272432,62.9523243 L66.7272432,7.99394595 C66.7272432,6.66162162 65.616973,5.55135135 64.2846486,5.55135135 L13.1011892,5.55135135 C11.7688649,5.55135135 10.6585946,6.66162162 10.6585946,7.99394595 L10.6585946,62.9523243 L7.77189189,62.9523243 L7.77189189,36.860973 C7.77189189,36.7499459 7.77189189,36.6389189 7.77189189,36.5278919 L7.77189189,28.5339459 C7.77189189,28.4229189 7.77189189,28.3118919 7.77189189,28.2008649 L7.77189189,3.44183784 C7.77189189,3.21978378 7.99394595,2.99772973 8.216,2.99772973 L69.2808649,2.99772973 C69.5029189,2.99772973 69.724973,3.21978378 69.724973,3.44183784 L69.724973,62.9523243 L66.7272432,62.9523243 Z M12.8791351,53.6260541 L30.8655135,53.6260541 C30.9765405,53.6260541 31.0875676,53.6260541 31.3096216,53.515027 L64.6177297,53.515027 L64.6177297,62.9523243 L12.8791351,62.9523243 L12.8791351,53.6260541 Z M64.5067027,8.216 L64.5067027,9.4372973 L12.8791351,9.4372973 L12.8791351,8.216 C12.8791351,7.99394595 13.1011892,7.77189189 13.3232432,7.77189189 L64.0625946,7.77189189 C64.3956757,7.77189189 64.5067027,7.99394595 64.5067027,8.216 Z M12.8791351,51.2944865 L12.8791351,34.5294054 L17.8753514,34.5294054 L17.8753514,41.4130811 C17.8753514,42.0792432 18.3194595,42.5233514 18.9856216,42.5233514 L23.4267027,42.5233514 C24.0928649,42.5233514 24.536973,42.0792432 24.536973,41.4130811 L24.536973,34.5294054 L29.6442162,34.5294054 L29.6442162,51.2944865 L12.8791351,51.2944865 Z M12.8791351,13.6563243 L64.5067027,13.6563243 L64.5067027,11.7688649 L12.8791351,11.7688649 L12.8791351,13.6563243 Z M12.8791351,17.6532973 L64.5067027,17.6532973 L64.5067027,15.7658378 L12.8791351,15.7658378 L12.8791351,17.6532973 Z M20.0958919,40.3028108 L22.3164324,40.3028108 L22.3164324,34.5294054 L20.0958919,34.5294054 L20.0958919,40.3028108 Z M13.2122162,32.3088649 L24.759027,32.3088649 L24.759027,23.6487568 L13.2122162,23.6487568 L13.2122162,32.3088649 Z M12.8791351,21.5392432 L64.5067027,21.5392432 L64.5067027,19.9848649 L12.8791351,19.9848649 L12.8791351,21.5392432 Z M38.7484324,35.7507027 C39.4145946,35.7507027 39.9697297,36.3058378 39.9697297,36.972 C39.9697297,37.6381622 39.4145946,38.1932973 38.7484324,38.1932973 C38.0822703,38.1932973 37.5271351,37.6381622 37.5271351,36.972 C37.5271351,36.3058378 38.0822703,35.7507027 38.7484324,35.7507027 Z M47.2975135,39.1925405 L51.4055135,31.1985946 L54.8473514,31.1985946 L58.9553514,39.1925405 L47.2975135,39.1925405 Z M51.8496216,50.2952432 C52.1827027,50.0731892 52.4047568,49.7401081 52.4047568,49.407027 L52.4047568,41.3020541 L53.8481081,41.3020541 L53.8481081,49.407027 C53.8481081,49.7401081 54.0701622,50.1842162 54.4032432,50.2952432 L55.9576216,51.2944865 L50.2952432,51.2944865 L51.8496216,50.2952432 Z M60.1766486,51.2944865 L56.0686486,48.7408649 L56.0686486,41.3020541 L60.7317838,41.3020541 C61.0648649,41.3020541 61.508973,41.08 61.62,40.7469189 C61.731027,40.4138378 61.8420541,39.9697297 61.62,39.6366486 L56.4017297,29.4221622 C56.1796757,29.0890811 55.8465946,28.867027 55.4024865,28.867027 L50.6283243,28.867027 C50.1842162,28.867027 49.8511351,29.0890811 49.6290811,29.4221622 L44.4108108,39.6366486 C44.1887568,39.9697297 44.2997838,40.4138378 44.4108108,40.7469189 C44.6328649,41.08 44.9659459,41.3020541 45.299027,41.3020541 L49.9621622,41.3020541 L49.9621622,48.7408649 L45.9651892,51.2944865 L31.9757838,51.2944865 L31.9757838,33.4191351 C31.9757838,32.752973 31.5316757,32.3088649 30.8655135,32.3088649 L27.0905946,32.3088649 L27.0905946,23.6487568 L37.6381622,23.6487568 L37.6381622,33.6411892 C36.3058378,34.0852973 35.4176216,35.3065946 35.4176216,36.860973 C35.4176216,38.7484324 36.972,40.1917838 38.7484324,40.1917838 C40.6358919,40.1917838 42.0792432,38.6374054 42.0792432,36.860973 C42.0792432,35.4176216 41.08,34.0852973 39.8587027,33.6411892 L39.8587027,23.6487568 L64.6177297,23.6487568 L64.6177297,51.2944865 L60.1766486,51.2944865 Z M71.2793514,69.5029189 L47.6305946,69.5029189 L47.6305946,67.3934054 C47.6305946,66.7272432 47.1864865,66.2831351 46.5203243,66.2831351 L30.8655135,66.2831351 C30.1993514,66.2831351 29.7552432,66.7272432 29.7552432,67.3934054 L29.7552432,69.5029189 L6.10648649,69.5029189 L6.10648649,65.2838919 L71.1683243,65.2838919 L71.1683243,69.5029189 L71.2793514,69.5029189 Z M67.8375135,79.4953514 C67.8375135,80.2725405 67.2823784,80.9387027 66.5051892,81.0497297 L66.8382703,80.6056216 C67.1713514,80.1615135 67.1713514,79.6063784 66.8382703,79.2732973 L65.616973,77.7189189 L66.8382703,76.1645405 C67.1713514,75.7204324 67.1713514,75.1652973 66.8382703,74.8322162 L65.616973,73.2778378 L66.7272432,71.8344865 L67.7264865,71.8344865 L67.7264865,79.4953514 L67.8375135,79.4953514 Z M63.3964324,73.832973 L64.6177297,75.3873514 L63.3964324,76.9417297 C63.0633514,77.3858378 63.0633514,77.940973 63.3964324,78.2740541 L64.6177297,79.8284324 L63.7295135,80.9387027 L62.5082162,80.9387027 L62.8412973,80.4945946 C63.1743784,80.0504865 63.1743784,79.4953514 62.8412973,79.1622703 L61.62,77.6078919 L62.8412973,76.0535135 C63.1743784,75.6094054 63.1743784,75.0542703 62.8412973,74.7211892 L61.62,73.1668108 L62.7302703,71.7234595 L63.9515676,71.7234595 L63.3964324,72.5006486 C63.0633514,72.8337297 63.0633514,73.3888649 63.3964324,73.832973 Z M58.4002162,79.4953514 L58.4002162,71.7234595 L59.9545946,71.7234595 L59.3994595,72.5006486 C59.0663784,72.9447568 59.0663784,73.4998919 59.3994595,73.832973 L60.6207568,75.3873514 L59.3994595,76.9417297 C59.0663784,77.3858378 59.0663784,77.940973 59.3994595,78.2740541 L60.6207568,79.8284324 L59.7325405,80.9387027 C58.9553514,80.9387027 58.4002162,80.2725405 58.4002162,79.4953514 Z M31.9757838,73.3888649 L45.5210811,73.3888649 L45.5210811,68.5036757 L31.9757838,68.5036757 L31.9757838,73.3888649 Z M20.0958919,79.4953514 C20.0958919,80.2725405 19.4297297,80.9387027 18.6525405,81.0497297 L18.9856216,80.6056216 C19.3187027,80.1615135 19.3187027,79.6063784 18.9856216,79.2732973 L17.7643243,77.7189189 L18.9856216,76.1645405 C19.3187027,75.7204324 19.3187027,75.1652973 18.9856216,74.8322162 L17.7643243,73.2778378 L18.8745946,71.8344865 L20.0958919,71.8344865 L20.0958919,79.4953514 Z M15.5437838,73.832973 L16.7650811,75.3873514 L15.5437838,76.9417297 C15.2107027,77.3858378 15.2107027,77.940973 15.5437838,78.2740541 L16.7650811,79.8284324 L15.8768649,80.9387027 L14.6555676,80.9387027 L14.9886486,80.4945946 C15.3217297,80.0504865 15.3217297,79.4953514 14.9886486,79.1622703 L13.8783784,77.6078919 L15.0996757,76.0535135 C15.4327568,75.6094054 15.4327568,75.0542703 15.0996757,74.7211892 L13.8783784,73.1668108 L14.9886486,71.7234595 L16.0989189,71.7234595 L15.5437838,72.5006486 C15.2107027,72.8337297 15.2107027,73.3888649 15.5437838,73.832973 Z M10.7696216,79.4953514 L10.7696216,71.7234595 L12.212973,71.7234595 L11.6578378,72.5006486 C11.3247568,72.9447568 11.3247568,73.4998919 11.6578378,73.832973 L12.8791351,75.3873514 L11.6578378,76.9417297 C11.3247568,77.3858378 11.3247568,77.940973 11.6578378,78.2740541 L12.8791351,79.8284324 L11.9909189,80.9387027 C11.2137297,80.8276757 10.7696216,80.1615135 10.7696216,79.4953514 Z M5.3292973,36.7499459 L2.44259459,36.7499459 C2.33156757,36.7499459 2.22054054,36.6389189 2.22054054,36.5278919 L2.22054054,28.5339459 C2.22054054,28.4229189 2.33156757,28.3118919 2.44259459,28.3118919 L5.3292973,28.3118919 C5.44032432,28.3118919 5.44032432,28.3118919 5.55135135,28.4229189 L5.55135135,36.5278919 C5.55135135,36.6389189 5.44032432,36.7499459 5.3292973,36.7499459 Z M75.0542703,26.0913514 L72.1675676,26.0913514 C72.0565405,26.0913514 72.0565405,26.0913514 71.9455135,26.0913514 L71.9455135,3.44183784 C71.9455135,1.99848649 70.7242162,0.777189189 69.2808649,0.777189189 L8.216,0.777189189 C6.77264865,0.777189189 5.55135135,1.99848649 5.55135135,3.44183784 L5.55135135,26.0913514 C5.44032432,26.0913514 5.44032432,26.0913514 5.3292973,26.0913514 L2.44259459,26.0913514 C1.11027027,26.0913514 0,27.2016216 0,28.5339459 L0,36.5278919 C0,37.8602162 1.11027027,38.9704865 2.44259459,38.9704865 L5.3292973,38.9704865 C5.44032432,38.9704865 5.44032432,38.9704865 5.55135135,38.9704865 L5.55135135,63.0633514 L5.10724324,63.0633514 C4.44108108,63.0633514 3.99697297,63.5074595 3.99697297,64.1736216 L3.99697297,70.6131892 C3.99697297,71.2793514 4.44108108,71.7234595 5.10724324,71.7234595 L8.54908108,71.7234595 L8.54908108,79.4953514 C8.54908108,81.6048649 10.2144865,83.2702703 12.324,83.2702703 L18.6525405,83.2702703 C20.7620541,83.2702703 22.4274595,81.6048649 22.4274595,79.4953514 L22.4274595,71.7234595 L29.8662703,71.7234595 L29.8662703,74.4991351 C29.8662703,75.1652973 30.3103784,75.6094054 30.9765405,75.6094054 L46.7423784,75.6094054 C47.4085405,75.6094054 47.8526486,75.1652973 47.8526486,74.4991351 L47.8526486,71.7234595 L56.4017297,71.7234595 L56.4017297,79.4953514 C56.4017297,81.6048649 58.0671351,83.2702703 60.1766486,83.2702703 L66.5051892,83.2702703 C68.6147027,83.2702703 70.2801081,81.6048649 70.2801081,79.4953514 L70.2801081,71.7234595 L72.6116757,71.7234595 C73.2778378,71.7234595 73.7219459,71.2793514 73.7219459,70.6131892 L73.7219459,64.1736216 C73.7219459,63.5074595 73.2778378,63.0633514 72.6116757,63.0633514 L72.1675676,63.0633514 L72.1675676,38.9704865 C72.2785946,38.9704865 72.2785946,38.9704865 72.3896216,38.9704865 L75.2763243,38.9704865 C76.6086486,38.9704865 77.7189189,37.8602162 77.7189189,36.5278919 L77.7189189,28.5339459 C77.4968649,27.2016216 76.3865946,26.0913514 75.0542703,26.0913514 L75.0542703,26.0913514 Z" id="Fill-1" fill="#205493" mask="url(#mask-2)"></path>
                    </g>
                </g>
            </g>
        </g>
    </g>
</svg>

<svg width="83" height="91" viewBox="0 0 83 91" xmlns="http://www.w3.org/2000/svg" xmlns:xlink="http://www.w3.org/1999/xlink"><title>Index_movingDay_icon</title><defs><path id="a" d="M.067 83.27h77.652V.777H.067z"/></defs><g transform="translate(3 3)" fill="none" fill-rule="evenodd"><mask id="b" fill="#fff"><use xlink:href="#a"/></mask><path d="M75.276 36.528a.239.239 0 0 1-.222.222h-2.886a.239.239 0 0 1-.222-.222v-7.994c0-.111.11-.222.222-.222h2.886c.111 0 .222.11.222.222v7.994zm-8.549 26.424V7.994a2.464 2.464 0 0 0-2.442-2.443H13.1a2.464 2.464 0 0 0-2.442 2.443v54.958H7.772V36.861v-8.327V3.44c0-.221.222-.443.444-.443h61.065c.222 0 .444.222.444.444v59.51h-2.998zM12.88 53.626h17.987c.11 0 .222 0 .444-.111h33.308v9.437H12.879v-9.326zm51.628-45.41v1.221H12.879V8.216c0-.222.222-.444.444-.444h50.74c.333 0 .444.222.444.444zM12.879 51.294V34.53h4.996v6.884c0 .666.444 1.11 1.11 1.11h4.442c.666 0 1.11-.444 1.11-1.11V34.53h5.107v16.765H12.88zm0-37.638h51.628V11.77H12.879v1.887zm0 3.997h51.628v-1.887H12.879v1.887zm7.217 22.65h2.22v-5.774h-2.22v5.774zm-6.884-7.994H24.76v-8.66H13.212v8.66zm-.333-10.77h51.628v-1.554H12.879v1.554zm25.87 14.212c.666 0 1.22.555 1.22 1.221s-.554 1.221-1.22 1.221a1.232 1.232 0 0 1-1.222-1.221c0-.666.555-1.221 1.221-1.221zm8.549 3.442l4.108-7.994h3.441l4.108 7.994H47.298zm4.552 11.102c.333-.222.555-.555.555-.888v-8.105h1.443v8.105c0 .333.222.777.555.888l1.555 1h-5.663l1.555-1zm8.327 1l-4.108-2.554v-7.439h4.663c.333 0 .777-.222.888-.555.111-.333.222-.777 0-1.11l-5.218-10.215c-.222-.333-.555-.555-1-.555h-4.774c-.444 0-.777.222-.999.555l-5.218 10.215c-.222.333-.111.777 0 1.11.222.333.555.555.888.555h4.663v7.439l-3.997 2.553h-13.99V33.42c0-.666-.443-1.11-1.11-1.11h-3.774v-8.66h10.547v9.992c-1.332.444-2.22 1.666-2.22 3.22 0 1.887 1.554 3.33 3.33 3.33 1.888 0 3.331-1.554 3.331-3.33 0-1.443-.999-2.776-2.22-3.22V23.65h24.759v27.645h-4.441zm11.102 18.208H47.631v-2.11c0-.666-.445-1.11-1.11-1.11H30.865c-.667 0-1.11.444-1.11 1.11v2.11H6.105v-4.22h65.062v4.22h.111zm-3.441 9.992c0 .778-.556 1.444-1.333 1.555l.333-.444c.333-.444.333-1 0-1.333l-1.221-1.554 1.221-1.554c.333-.445.333-1 0-1.333l-1.221-1.554 1.11-1.444h1v7.661h.11zm-4.442-5.662l1.222 1.554-1.222 1.555c-.333.444-.333.999 0 1.332l1.222 1.554-.888 1.11h-1.222l.333-.443c.333-.445.333-1 0-1.333l-1.221-1.554 1.221-1.554c.333-.445.333-1 0-1.333l-1.221-1.554 1.11-1.444h1.222l-.556.778c-.333.333-.333.888 0 1.332zM58.4 79.495v-7.772h1.555l-.556.778c-.333.444-.333.999 0 1.332l1.222 1.554-1.222 1.555c-.333.444-.333.999 0 1.332l1.222 1.554-.888 1.11c-.778 0-1.333-.665-1.333-1.443zM31.976 73.39H45.52v-4.885H31.976v4.885zm-11.88 6.106c0 .778-.666 1.444-1.443 1.555l.333-.444c.333-.444.333-1 0-1.333l-1.222-1.554 1.222-1.554c.333-.445.333-1 0-1.333l-1.222-1.554 1.11-1.444h1.222v7.661zm-4.552-5.662l1.221 1.554-1.221 1.555c-.333.444-.333.999 0 1.332l1.221 1.554-.888 1.11h-1.221l.333-.443c.333-.445.333-1 0-1.333l-1.11-1.554 1.22-1.554c.334-.445.334-1 0-1.333l-1.22-1.554 1.11-1.444h1.11l-.555.778c-.333.333-.333.888 0 1.332zm-4.774 5.662v-7.772h1.443l-.555.778c-.333.444-.333.999 0 1.332l1.221 1.554-1.221 1.555c-.333.444-.333.999 0 1.332l1.221 1.554-.888 1.11c-.777-.11-1.221-.776-1.221-1.443zM5.33 36.75H2.442a.239.239 0 0 1-.222-.222v-7.994c0-.111.11-.222.222-.222h2.886c.111 0 .111 0 .222.11v8.106a.239.239 0 0 1-.222.222zM75.053 26.09h-3.108V3.441c0-1.443-1.222-2.664-2.665-2.664H8.216c-1.443 0-2.665 1.221-2.665 2.665v22.65H2.443A2.464 2.464 0 0 0 0 28.533v7.994a2.464 2.464 0 0 0 2.443 2.442H5.55v24.093h-.444c-.666 0-1.11.444-1.11 1.11v6.44c0 .666.444 1.11 1.11 1.11H8.55v7.772a3.744 3.744 0 0 0 3.775 3.775h6.329a3.744 3.744 0 0 0 3.774-3.775v-7.772h7.44V74.5c0 .666.443 1.11 1.11 1.11h15.765c.667 0 1.11-.444 1.11-1.11v-2.776h8.55v7.772a3.744 3.744 0 0 0 3.775 3.775h6.328a3.744 3.744 0 0 0 3.775-3.775v-7.772h2.332c.666 0 1.11-.444 1.11-1.11v-6.44c0-.666-.444-1.11-1.11-1.11h-.444V38.97h3.108a2.464 2.464 0 0 0 2.443-2.442v-7.994c-.222-1.332-1.332-2.443-2.665-2.443z" fill="#205493" mask="url(#b)"/></g></svg>
